public/icons/openai-icon.svg

<svg xmlns="http://www.w3.org/2000/svg" width="1em" height="1em" fill="#61DAFB" viewBox="0 0 320 320"><g clip-path="url(#a)"><path d="M297.06 130.97a79.71 79.71 0 0 0-6.85-65.48c-17.46-30.4-52.56-46.04-86.84-38.68A79.75 79.75 0 0 0 143.24 0C108.2-.08 77.11 22.48 66.33 55.82a79.75 79.75 0 0 0-53.31 38.67c-17.59 30.32-13.58 68.54 9.92 94.54a79.71 79.71 0 0 0 6.85 65.48c17.46 30.4 52.56 46.04 86.84 38.68a79.69 79.69 0 0 0 60.13 26.8c35.06.09 66.16-22.49 76.94-55.86a79.75 79.75 0 0 0 53.31-38.67c17.57-30.32 13.55-68.51-9.94-94.51zM176.78 299.08a59.77 59.77 0 0 1-38.39-13.88c.49-.26 1.34-.73 1.89-1.07l63.72-36.8a10.36 10.36 0 0 0 5.24-9.07v-89.83l26.93 15.55c.29.14.48.42.52.74v74.39c-.04 33.08-26.83 59.9-59.91 59.97M47.94 244.05a59.7 59.7 0 0 1-7.15-40.18c.47.28 1.3.79 1.89 1.13l63.72 36.8c3.23 1.89 7.23 1.89 10.47 0l77.79-44.92v31.1c.02.32-.13.63-.38.83L129.87 266c-28.69 16.52-65.33 6.7-81.92-21.95zM31.17 104.96c7-12.16 18.05-21.46 31.21-26.29 0 .55-.03 1.52-.03 2.2v73.61c-.02 3.74 1.98 7.21 5.23 9.06l77.79 44.91L118.44 224c-.27.18-.61.21-.91.08l-64.42-37.22c-28.63-16.58-38.45-53.21-21.95-81.89zm221.26 51.49-77.79-44.92 26.93-15.54c.27-.18.61-.21.91-.08l64.42 37.19c28.68 16.57 38.51 53.26 21.94 81.94a59.94 59.94 0 0 1-31.2 26.28v-75.81c.03-3.74-1.96-7.2-5.2-9.06zm26.8-40.34c-.47-.29-1.3-.79-1.89-1.13l-63.72-36.8a10.38 10.38 0 0 0-10.47 0l-77.79 44.92V92c-.02-.32.13-.63.38-.83l64.41-37.16c28.69-16.55 65.37-6.7 81.91 22a59.95 59.95 0 0 1 7.15 40.1zm-168.51 55.43-26.94-15.55a.94.94 0 0 1-.52-.74V80.86c.02-33.12 26.89-59.96 60.01-59.94 14.01 0 27.57 4.92 38.34 13.88-.49.26-1.33.73-1.89 1.07L116 72.67a10.34 10.34 0 0 0-5.24 9.06l-.04 89.79zM125.35 140 160 119.99l34.65 20V180L160 200l-34.65-20z"/></g><defs><clipPath id="a"><path d="M0 0h320v320H0z"/></clipPath></defs></svg>

<svg height="1em" width="1em" viewBox="0 0 320 320" fill="#61DAFB" xmlns="http://www.w3.org/2000/svg">
<g clip-path="url(#clip0_10145_290560)">
<path d="M297.06 130.97C304.32 109.18 301.82 85.31 290.21 65.49C272.75 35.09 237.65 19.45 203.37 26.81C188.12 9.63002 166.21 -0.139981 143.24 1.93887e-05C108.2 -0.0799806 77.11 22.48 66.33 55.82C43.82 60.43 24.39 74.52 13.02 94.49C-4.57001 124.81 -0.560007 163.03 22.94 189.03C15.68 210.82 18.18 234.69 29.79 254.51C47.25 284.91 82.35 300.55 116.63 293.19C131.87 310.37 153.79 320.14 176.76 319.99C211.82 320.08 242.92 297.5 253.7 264.13C276.21 259.52 295.64 245.43 307.01 225.46C324.58 195.14 320.56 156.95 297.07 130.95L297.06 130.97ZM176.78 299.08C162.75 299.1 149.16 294.19 138.39 285.2C138.88 284.94 139.73 284.47 140.28 284.13L204 247.33C207.26 245.48 209.26 242.01 209.24 238.26V148.43L236.17 163.98C236.46 164.12 236.65 164.4 236.69 164.72V239.11C236.65 272.19 209.86 299.01 176.78 299.08ZM47.94 244.05C40.91 231.91 38.38 217.68 40.79 203.87C41.26 204.15 42.09 204.66 42.68 205L106.4 241.8C109.63 243.69 113.63 243.69 116.87 241.8L194.66 196.88V227.98C194.68 228.3 194.53 228.61 194.28 228.81L129.87 266C101.18 282.52 64.54 272.7 47.95 244.05H47.94ZM31.17 104.96C38.17 92.8 49.22 83.5 62.38 78.67C62.38 79.22 62.35 80.19 62.35 80.87V154.48C62.33 158.22 64.33 161.69 67.58 163.54L145.37 208.45L118.44 224C118.17 224.18 117.83 224.21 117.53 224.08L53.11 186.86C24.48 170.28 14.66 133.65 31.16 104.97L31.17 104.96ZM252.43 156.45L174.64 111.53L201.57 95.99C201.84 95.81 202.18 95.78 202.48 95.91L266.9 133.1C295.58 149.67 305.41 186.36 288.84 215.04C281.83 227.18 270.79 236.48 257.64 241.32V165.51C257.67 161.77 255.68 158.31 252.44 156.45H252.43ZM279.23 116.11C278.76 115.82 277.93 115.32 277.34 114.98L213.62 78.18C210.39 76.29 206.39 76.29 203.15 78.18L125.36 123.1V92C125.34 91.68 125.49 91.37 125.74 91.17L190.15 54.01C218.84 37.46 255.52 47.31 272.06 76.01C279.05 88.13 281.58 102.32 279.21 116.11H279.23ZM110.72 171.54L83.78 155.99C83.49 155.85 83.3 155.57 83.26 155.25V80.86C83.28 47.74 110.15 20.9 143.27 20.92C157.28 20.92 170.84 25.84 181.61 34.8C181.12 35.06 180.28 35.53 179.72 35.87L116 72.67C112.74 74.52 110.74 77.98 110.76 81.73L110.72 171.52V171.54ZM125.35 140L160 119.99L194.65 139.99V180L160 200L125.35 180V140Z" fill="#61DAFB"/>
</g>
<defs>
<clipPath id="clip0_10145_290560">
<rect width="320" height="320" fill="#61DAFB"/>
</clipPath>
</defs>
</svg>
